brandFactory_export/1.Light/Millenials_1Light.svg

<?xml version="1.0" encoding="UTF-8"?>
<svg width="24px" height="24px" viewBox="0 0 24 24" version="1.1" xmlns="http://www.w3.org/2000/svg" xmlns:xlink="http://www.w3.org/1999/xlink">
    <title>1.Light/Millenials_1Light</title>
    <g id="Symbols" stroke="none" stroke-width="1" fill="none" fill-rule="evenodd">
        <g id="1.Light/Millenials_1Light" fill="#5CB615" fill-rule="nonzero">
            <path d="M14.2218487,15.3142857 C14.6252101,14.9445378 14.8302521,14.3428571 14.8302521,13.5327731 C14.8302521,12.7193277 14.6218487,12.1210084 14.2184874,11.7445378 C13.8285714,11.3815126 13.2134454,11.2 12.3932773,11.2 C11.5731092,11.2 10.9647059,11.3815126 10.5714286,11.7445378 C10.1680672,12.1176471 9.96638655,12.7193277 9.96638655,13.5327731 C9.96638655,14.3462185 10.1680672,14.9445378 10.5714286,15.3142857 C10.9613445,15.6739496 11.5731092,15.8555072 12.3932773,15.8555072 C13.2168067,15.8588235 13.8319328,15.6739496 14.2218487,15.3142857 Z M12.3932773,10.1579832 C13.5058824,10.1579832 14.3764706,10.4369748 14.9747899,10.994958 C15.6033613,11.5731092 15.9193277,12.4268908 15.9193277,13.5327731 C15.9193277,14.6386555 15.6,15.492437 14.9714286,16.0672269 C14.3731092,16.6184874 13.502521,16.9008403 12.389916,16.9008403 C11.2806723,16.9008403 10.410084,16.6184874 9.81176471,16.0672269 C9.18991597,15.492437 8.87394958,14.6420168 8.87394958,13.5327731 C8.87394958,12.4235294 9.18991597,11.5697479 9.81176471,10.994958 C10.4168067,10.4369748 11.2840336,10.1579832 12.3932773,10.1579832 L12.3932773,10.1579832 Z M17.5630252,22.5815126 L17.5630252,22.1210084 C17.5630252,21.3243697 17.3176471,20.6588235 16.8537815,20.194958 C16.3428571,19.687395 15.5428571,19.4184874 14.5411765,19.4184874 L10.2487395,19.4184874 C9.25042017,19.4184874 8.45378151,19.687395 7.94285714,20.194958 C7.48235294,20.6554622 7.24033613,21.3210084 7.24033613,22.1210084 L7.24033613,22.5815126 L17.5630252,22.5815126 L17.5630252,22.5815126 Z M14.5411765,18.3764706 C15.8453782,18.3764706 16.9142857,18.7563025 17.6369748,19.4756303 C18.302521,20.1344538 18.6521008,21.0487395 18.6521008,22.1210084 L18.6521008,23.2436975 C18.6521008,23.4554622 18.4739496,23.6268908 18.2521008,23.6268908 L6.54789916,23.6268908 C6.32605042,23.6268908 6.14789916,23.4554622 6.14789916,23.2436975 L6.14789916,22.1210084 C6.14789916,21.0453782 6.49747899,20.1310924 7.15294118,19.4756303 C7.87226891,18.7563025 8.94453782,18.3764706 10.2453782,18.3764706 L14.5411765,18.3764706 Z M20.6285714,3.26386555 C20.8302521,3.4789916 20.810084,3.80840336 20.5848739,4 C20.4806723,4.0907563 20.3529412,4.13109244 20.2218487,4.13109244 C20.0705882,4.13109244 19.9260504,4.07058824 19.8151261,3.95966387 C16.9008403,0.840336134 12.4033613,1.05210084 12.3596639,1.05210084 C7.58655462,1.10588235 5.00504202,3.74789916 4.97815126,3.77478992 C4.77310924,3.98655462 4.4302521,4.00336134 4.21176471,3.81176471 C3.98991597,3.61680672 3.9697479,3.2907563 4.17478992,3.07563025 C4.28907563,2.95462185 7.0789916,0.0705882353 12.3226891,0.0134453782 C12.5042017,-0.00336134454 17.3579832,-0.238655462 20.6285714,3.26386555 Z M12.3294118,3.44201681 C12.4840336,3.43193277 16.3260504,3.31092437 18.7731092,5.93277311 C18.9747899,6.14789916 18.9546218,6.47731092 18.7294118,6.66890756 C18.507563,6.85714286 18.1613445,6.84369748 17.9630252,6.62857143 C15.8655462,4.37983193 12.3932773,4.47731092 12.3596639,4.48403361 C8.91428571,4.5210084 6.8605042,6.64537815 6.83697479,6.66554622 C6.72941176,6.77647059 6.58151261,6.83697479 6.43361345,6.83697479 C6.30252101,6.83697479 6.17478992,6.79327731 6.06722689,6.70252101 C5.84537815,6.51092437 5.82521008,6.18151261 6.02689076,5.96638655 C6.12436975,5.86890756 8.40672269,3.48571429 12.3294118,3.44201681 L12.3294118,3.44201681 Z M16.5344538,9.32773109 C16.312605,9.51932773 15.9663866,9.49915966 15.7680672,9.28403361 C14.5042017,7.93277311 12.4033613,7.99663866 12.3831933,7.99663866 C10.2689076,8.01680672 9.04201681,9.29747899 9.03193277,9.31092437 C8.92773109,9.42857143 8.77647059,9.48235294 8.62521008,9.48235294 C8.49411765,9.48235294 8.36638655,9.43865546 8.26218487,9.3512605 C8.03697479,9.15966387 8.02016807,8.8302521 8.22184874,8.61512605 C8.28571429,8.54789916 9.78823529,6.98151261 12.3529412,6.95462185 C12.4436975,6.95798319 14.9680672,6.86386555 16.5815126,8.59159664 C16.7798319,8.80672269 16.7596639,9.13613445 16.5344538,9.32773109 L16.5344538,9.32773109 Z" id="Millenials_1Light"></path>
        </g>
    </g>
</svg>

<svg width="24" height="24" viewBox="0 0 24 24" xmlns="http://www.w3.org/2000/svg"><path d="M14.222 15.314c.403-.37.608-.971.608-1.781 0-.814-.208-1.412-.612-1.788-.39-.363-1.005-.545-1.825-.545-.82 0-1.428.182-1.822.545-.403.373-.605.974-.605 1.788 0 .813.202 1.412.605 1.781.39.36 1.002.542 1.822.542.824.003 1.439-.182 1.829-.542zm-1.829-5.156c1.113 0 1.983.279 2.582.837.628.578.944 1.432.944 2.538 0 1.106-.319 1.96-.948 2.534-.598.551-1.468.834-2.581.834-1.11 0-1.98-.283-2.578-.834-.622-.575-.938-1.425-.938-2.534 0-1.11.316-1.963.938-2.538.605-.558 1.472-.837 2.581-.837zm5.17 12.424v-.461c0-.797-.245-1.462-.71-1.926-.51-.508-1.31-.777-2.312-.777H10.25c-.999 0-1.795.27-2.306.777-.46.46-.703 1.126-.703 1.926v.46h10.323zm-3.022-4.206c1.304 0 2.373.38 3.096 1.1.666.658 1.015 1.573 1.015 2.645v1.123a.391.391 0 01-.4.383H6.548a.391.391 0 01-.4-.383V22.12c0-1.076.35-1.99 1.005-2.645.72-.72 1.792-1.1 3.092-1.1h4.296zM20.63 3.264a.504.504 0 01-.044.736.573.573 0 01-.77-.04C16.901.84 12.403 1.052 12.36 1.052c-4.773.054-7.355 2.696-7.382 2.723a.562.562 0 01-.766.037.504.504 0 01-.037-.736C4.289 2.955 7.079.07 12.323.013c.181-.016 5.035-.252 8.306 3.25zm-8.3.178c.155-.01 3.997-.131 6.444 2.49a.504.504 0 01-.044.737.562.562 0 01-.766-.04c-2.097-2.25-5.57-2.152-5.603-2.145-3.446.037-5.5 2.161-5.523 2.182a.565.565 0 01-.77.037.507.507 0 01-.04-.737c.097-.097 2.38-2.48 6.302-2.524zm4.205 5.886a.559.559 0 01-.766-.044c-1.264-1.351-3.365-1.287-3.385-1.287-2.114.02-3.341 1.3-3.351 1.314a.536.536 0 01-.407.171.56.56 0 01-.363-.13.504.504 0 01-.04-.737c.064-.067 1.566-1.633 4.13-1.66.092.003 2.616-.091 4.23 1.637a.507.507 0 01-.048.736z" fill="#5CB615" fill-rule="nonzero"/></svg>
